X:7
T:Bride of the Winds
R:Jig
Z:Chris Falt <cfalt@trytel.com>
M:6/8
L:1/8
K:C
e|"C"g^fg agf|gec G2c|"G7"BdB GAB|"C"cBA G2^f|!
g^fg agf|gec G2c|"G7"BdB GAB|"C"c3 z2:|!
|:G|"C"GEG cBc|"D7"ABA d2c|"G7"Bgg g^fg|"C"ag^f gec|!
GEG cBc|"D7"ABA d2c|"G7"Bgg age|"C"c3 z2:|]
